X:1
T:5 Gesänge f. 4 Männerst.
T:Eine Maiennacht
T: Franz Abt
T:Eine Maiennacht 
T:Op. 99, No. 2
T:CPDL   —   Creative Commons Attribution Non Commercial 3.0
T:CPDL   —   Creative Commons Attribution Non Commercial 3.0
T:CPDL   —   Creative Commons Attribution Non Commercial 3.0
C:Franz Abt
Z:CPDL   —   Creative Commons Attribution Non Commercial 3.0
%%score [ 1 ( 2 3 ) ( 4 5 ) ]
L:1/8
Q:1/4=72
M:3/4
K:F
V:1 treble-8 nm="Tenor\n1"
V:2 treble-8 nm="Tenor\n2"
V:3 treble-8 
V:4 bass nm="Bass"
V:5 bass 
V:1
!pp!"^Etwas langsam, sehr gehalten" AB =B | d3 c ef | f2!>(! ed!>)! c>F | G3 G !>!B>B | %4
w: 1.  Es legt um|Busch und grü- ne|Gip- fel die lau- e|Nacht so sanft den|
w: 2.  Als wollt' er|leis zum Be- ten|we- cken, so sum- met|fer- nem Läu- ten|
w: 3.  Und drü- ber|hin zieh'n Sil- ber-|ster- ne so si- cher|durch die dunk- le|
"^ten." A4 A2- | A2 AA Ad | ^c>e e2 d=c | (.=B.B .c.c .d.d) | !>!f3!>(! f e!>)!d | c3 c c>!p!=B | %10
w: Arm, stumm|_ wer- den lie- der-|vol- le Wip- fel, und|Schlum- mer wie- get ein den|Harm, und Schlum- mer|wie- get ein den|
w: gleich ein|_ Kä- fer noch zu|duft'- gen He- cken, und|sucht sein Blü- ten- bett, so|weich, und sucht sein|Blü- ten- bett, so|
w: Welt, wie|_ Pil- ger in der|wei- ten Fer- ne, die|fest ein treu- er Füh- rer|hält, die fest ein|treu- er Füh- rer|
 c4!mf!"^Solo" c2 | f3 f e>d |"^Solo" c4 F2 | d3 d d>d | d6 | g2 fe dc | c>A f2 ed | (G2 d2) c2 | %18
w: Harm. 1\-3. O|Nacht, du heil'- ge|Nacht, o|Nacht, du stil- le|Nacht,|wer hat dich doch so|reich be- dacht, so _|reich _ be-|
w: weich. *||Nacht, o|stil- le Mai- en-|nacht,|wie hat dich Gott so|reich be- dacht, * *||
w: hält. *||Nacht, O|Nacht, du stil- le|Nacht,|wer hat dich doch so|reich be- dacht, * *||
 c4"^Tutti"!mf! F2 |!f! f3 f !>!e>d |!>(! c4!>)!!pp! c2 | _d3 d d>c |!<(! =B6!<)! | %23
w: dacht! O|Nacht, du heil'- ge|Nacht, o|Nacht, du stil- le|Nacht,|
w: ||* o|stil- le Mai- en-|nacht,|
w: ||* o|Nacht, du stil- le|Nacht,|
 !>!g2 f"^cresc."e dc |!f! a>e f2!ff! g2 |[Q:1/4=66]"^poco riten." (g2 b2) e2 | !fermata!f2 z |] %27
w: wer hat dich doch so|reich be- dacht, 1\-3. so|reich _ be-|dacht!|
w: wie hat dich Gott so|reich be- dacht, *|||
w: wer hat dich doch so|reich be- dacht, *|||
V:2
!pp! AB =B | d3 c cc | =B2!>(! BB!>)! c>F | F3 G !>!G>G |"^ten." F4 z2 | E2 FG AA | A>A A2 AA | %7
w: 1.  Es legt um|Busch und grü- ne|Gip- fel die lau- e|Nacht so sanft den|Arm,|stumm wer- den lie- der-|vol- le Wip- fel, und|
w: 2.  Als wollt' er|leis zum Be- ten|we- cken, so sum- met|fer- nem Läu- ten|gleich|ein Kä- fer noch zu|duft'- gen He- cken, und|
w: 3.  Und drü- ber|hin zieh'n Sil- ber-|ster- ne so si- cher|durch die dunk- le|Welt,|wie Pil- ger in der|wei- ten Fer- ne, die|
 (.A.A .A.A ._A.A) | !>!^G3!>(! =G G!>)!A | G^F AG =F>!p!G | G4"^Tutti" z2 |!pp! A4 ^G2 | %12
w: Schlum- mer wie- get ein den|Harm, und Schlum- mer|wie- * * get ein den|Harm.|1\-3. Hei'- ge|
w: sucht sein Blü- ten- bett, so|weich, und sucht sein|Blü- * * ten- bett, so|weich.||
w: fest ein treu- er Füh- rer|hält, die fest ein|treu- * * er Füh- rer|hält.||
"^T1""^T2" A6 | B4 c2 |!<(! =B6!<)! |!>(! _B4!>)! B2 | A4 A2 | B4 B2 | A4"^Tutti"!mf! F2 | %19
w: Nacht,|stil- le|Nacht,|wer hat|dich so|reich be-|dacht! O|
w: |||||||
w: |||||||
!f! d3 d !>!c>B |!>(! A4!>)!!pp! _A2 | _A3 A A>A |!<(! G6!<)! | !>!_B2 B"^cresc."B Bc | %24
w: Nacht, du heil'- ge|Nacht, o|Nacht, du stil- le|Nacht,|wer hat dich doch so|
w: |* o|stil- le Mai- en-|nacht,|wie hat dich Gott so|
w: |* o|Nacht, du stil- le|Nacht,|wer hat dich doch so|
!f! c>c c2!ff! f2 | e4 c2 | !fermata![Ac]2 z |] %27
w: reich be- dacht, 1\-3. so|reich be-|dacht!|
w: reich be- dacht, *|||
w: reich be- dacht, *|||
V:3
 x3 | x6 | x6 | x6 | x6 | x6 | x6 | x6 | x6 | x6 | x6 | F4 F2 | F6 | F4 F2 | F6 | E4 G2 | F4 F2 | %17
 G4 G2 | F4 x2 | x6 | x6 | x6 | x6 | x6 | x6 | (e2 c2) B2 | x3 |] %27
V:4
!pp! A,,B,, =B,, | D,3 C, G,F, | D,2!>(! E,F,!>)! F,>C, | D,3 F, !>!F,>E, |"^ten." C,4 z2 | %5
 ^C,2 D,E, F,F, | E,>G, G,2 F,F, | (.F,.F, .F,.F, .F,.F,) | !>!D,3!>(! D, C,!>)!F, | %9
 E,^D, =F,E, =D,>!p!F, | E,4"^Tutti" z2 |!pp! C,4 =B,,2 |"^B1""^B2" C,6 | D,4 D,2 |!<(! D,6!<)! | %15
!>(! C,4!>)! E,2 | F,4 C,2 | F,4 E,2 | C,4"^Tutti"!mf! F,2 |!f! A,3 A, !>!F,>F, | %20
!>(! F,4!>)!!pp! _G,2 | F,3 F, F,>F, |!<(! F,6!<)! | !>!C2 C"^cresc."C G,B, |!f! A,>B, C2!ff! D2 | %25
 (CB, [G,B,]2) G,2 | !fermata![C,F,]2 z |] %27
V:5
 A,,B,, =B,, | D,3 C, B,,A,, | ^G,,2 G,,G,, A,,>A,, | B,,3 B,, C,>C, | F,,4 x2 | %5
 A,,2 A,,A,, A,,A,, | A,,>^C, C,2 D,D, | D,D, C,C, =B,,B,, | =B,,3 B,, C,F,, | G,,3 G,, G,,>G,, | %10
 [C,,C,]4 x2 | F,,4 F,,2 | F,,6 | B,,4 _A,,2 | G,,6 | [C,,C,]4 C,2 | C,4 C,2 | C,4 C,2 | F,,4 F,2 | %19
 D,3 D, A,,>A,, | F,4 _E,2 | _D,3 D, D,>D, | =D,6 | E,2 F,G, F,E, | F,>G, A,2 =B,2 | %25
 (CB, C,2) C,2 | F,,2 x |] %27

